X: 4514
T: Book Of Kells, The
R: reel
M: 4/4
K: Cmajor
A2|:d2d2 (dcAd)|d2 (dc dcAc)|d2 (dc dcAc)|(dcde f) (age):|
|:d2 (dcAd) d2|(dcdc Ac) d2|(dcdc Ac) (dc|de) (fagf) g2|
(gfgf eg) (fe|dc) (AGFE) F2-|F A E3 F D2|DEFG Ac d2:|

